X:17
T:Boys of Tandernagee
Z: id:dc-jig-12
M:6/8
L:1/8
K:E Dorian
A|B3 E3|BAB d2B|A3 DED|AFD FGA|!
B3 E3|BAB def|edB AFA|BEE E2:|!
A|B2e efe|def afd|e2d dcd|Bcd dBA|!
B2e efe|def afd|edB AFA|BEE E2:|!


